icons/shield-help-outline.svg

<svg xmlns="http://www.w3.org/2000/svg" width="24" height="24" viewBox="0 0 24 24">
  <path d="M12,1 C15.5169906,1 18.3742467,1.71431401 20.5547002,3.16794971 C20.8328989,3.35341548 21,3.66564681 21,4 L21,4 L21,12.9096249 C20.9981658,16.3441397 19.0497159,19.5919666 16.0272136,21.1044272 L16.0272136,21.1044272 L12.4472136,22.8944272 C12.1656861,23.0351909 11.8343139,23.0351909 11.5527864,22.8944272 L11.5527864,22.8944272 L7.97250014,21.104284 C4.95028406,19.5919666 3.00183418,16.3441397 3,12.9090909 L3,12.9090909 L3,4 C3,3.66564681 3.16710114,3.35341548 3.4452998,3.16794971 C5.62575334,1.71431401 8.48300939,1 12,1 Z M11.9999999,3 C9.15029309,3 6.85199016,3.50672557 5.09245014,4.5016552 L5.09245014,4.5016552 L4.99999986,4.555 L4.99999986,12.9085569 C5.00138724,15.5066311 6.43129904,17.976644 8.636365,19.1941391 L8.636365,19.1941391 L8.8672136,19.3155728 L11.9999999,20.881 L15.1325001,19.315716 C17.3905248,18.1858001 18.8956579,15.7647258 18.9947875,13.1773026 L18.9947875,13.1773026 L18.9999999,12.9090909 L18.9999999,4.556 L18.9075499,4.5016552 C17.2406172,3.55909028 15.0901411,3.0546919 12.4453733,3.00420832 L12.4453733,3.00420832 Z M12.0001686,14 C12.5524586,14 13.0001686,14.4477 13.0001686,15 C13.0001686,15.5523 12.5524586,16 12.0001686,16 C11.4478886,16 11.0001686,15.5523 11.0001686,15 C11.0001686,14.4477 11.4478886,14 12.0001686,14 Z M12.0001686,8 C12.5537486,8 13.1555886,8.16344 13.6376686,8.525 C14.1397686,8.90158 14.5001686,9.48991 14.5001686,10.25 C14.5001686,10.69838 14.3847686,11.07994 14.1710686,11.4004 C13.9664386,11.70737 13.7009186,11.91339 13.4787086,12.06154 C13.3700286,12.134 13.2594286,12.20036 13.1657686,12.25656 L13.1657686,12.25656 C13.0591686,12.32052 12.9769786,12.37001 12.9005986,12.42093 C12.7478286,12.52279 12.6695886,12.59803 12.6242286,12.66609 C12.3944886,13.01075 11.9288386,13.10391 11.5841786,12.87417 C11.2395186,12.64442 11.1463586,12.17878 11.3760986,11.83412 C11.5807386,11.52712 11.8462486,11.32107 12.0684786,11.1729 C12.1772086,11.10041 12.2878586,11.03402 12.3815586,10.9778 L12.3815586,10.9778 C12.4880486,10.9139 12.5702386,10.86441 12.6466286,10.81349 C12.7994086,10.71162 12.8776486,10.63639 12.9229986,10.56835 C12.9593586,10.51381 13.0001686,10.42662 13.0001686,10.25 C13.0001686,10.01009 12.9022286,9.84842 12.7376686,9.725 C12.5530786,9.58656 12.2799186,9.5 12.0001686,9.5 C11.6314086,9.5 11.4046986,9.59004 11.2599386,9.68654 C11.1104886,9.78617 11.0014986,9.92438 10.9209886,10.08541 C10.7357486,10.45589 10.2852386,10.60606 9.91475858,10.42082 C9.54426858,10.23558 9.39409858,9.78507 9.57934858,9.41459 C9.74882858,9.07562 10.0148386,8.71383 10.4278886,8.43846 C10.8456386,8.15996 11.3689286,8 12.0001686,8 Z"/>
</svg>

<svg xmlns="http://www.w3.org/2000/svg" viewBox="0 0 24 24">
  <path d="M12 1c3.52 0 6.37.71 8.55 2.17A1 1 0 0 1 21 4v8.91a9.23 9.23 0 0 1-4.97 8.2l-3.58 1.78a1 1 0 0 1-.9 0L7.97 21.1A9.23 9.23 0 0 1 3 12.9V4a1 1 0 0 1 .45-.83C5.63 1.7 8.48 1 12 1zm0 2c-2.85 0-5.15.5-6.9 1.5l-.1.05v8.36c0 2.6 1.43 5.07 3.64 6.28l.23.13L12 20.88l3.13-1.56A7.22 7.22 0 0 0 19 13.18l.01-.27V4.56l-.1-.06c-1.66-.94-3.81-1.45-6.45-1.5zm0 11a1 1 0 1 1 0 2 1 1 0 0 1 0-2zm0-6c.55 0 1.16.16 1.64.53.5.37.86.96.86 1.72a2.03 2.03 0 0 1-1.02 1.81l-.31.2-.27.16a.96.96 0 0 0-.28.25.75.75 0 0 1-1.24-.84c.2-.3.47-.5.69-.66l.31-.2c.1-.06.19-.1.27-.16.15-.1.23-.17.27-.24a.54.54 0 0 0 .08-.32c0-.24-.1-.4-.26-.53A1.26 1.26 0 0 0 12 9.5c-.37 0-.6.09-.74.19a1 1 0 0 0-.34.4.75.75 0 0 1-1.34-.68c.17-.33.43-.7.85-.97.42-.28.94-.44 1.57-.44z"/>
</svg>
